main/static/img/legend/osmand/natural/natural_natural_arch_day.svg

<svg width="300" height="40" viewBox="0 0 300 40" fill="none" xmlns="http://www.w3.org/2000/svg" xmlns:xlink="http://www.w3.org/1999/xlink" version="1.1">

<g transform="translate(130.000000, 0.000000) scale(2.500000 2.500000) "> 

  <metadata
     id="metadata10">
    <rdf:RDF>
      <cc:Work
         rdf:about="">
        <dc:format>image/svg+xml</dc:format>
        <dc:type
           rdf:resource="http://purl.org/dc/dcmitype/StillImage" />
        <dc:title></dc:title>
      </cc:Work>
    </rdf:RDF>
  </metadata>
  <defs
     id="defs8" />
  <sodipodi:namedview
     pagecolor="#ffffff"
     bordercolor="#666666"
     borderopacity="1"
     objecttolerance="10"
     gridtolerance="10"
     guidetolerance="10"
     inkscape:pageopacity="0"
     inkscape:pageshadow="2"
     inkscape:window-width="1920"
     inkscape:window-height="1014"
     id="namedview6"
     showgrid="true"
     inkscape:snap-bbox="true"
     inkscape:snap-page="true"
     inkscape:zoom="29.5"
     inkscape:cx="7.3290555"
     inkscape:cy="11.662197"
     inkscape:window-x="1920"
     inkscape:window-y="0"
     inkscape:window-maximized="1"
     inkscape:current-layer="svg4">
    <inkscape:grid
       type="xygrid"
       id="grid827"
       spacingx="1"
       spacingy="1" />
  </sodipodi:namedview>
  <path
     sodipodi:type="inkscape:offset"
     inkscape:radius="0.67796606"
     inkscape:original="M 4 1.3339844 C 2.0536441 4.7375003 1.3428658 9.6865132 1.3339844 14.666016 L 3.3339844 14.666016 C 5.3339844 3.3326819 10.666016 3.3326819 12.666016 14.666016 L 14.666016 14.666016 C 14.635875 9.2747655 13.883251 4.682103 12 1.3339844 L 4 1.3339844 z "
     style="color:#000000;clip-rule:nonzero;display:inline;overflow:visible;visibility:visible;opacity:0.81199999;isolation:auto;mix-blend-mode:normal;color-interpolation:sRGB;color-interpolation-filters:linearRGB;solid-color:#000000;solid-opacity:1;vector-effect:none;fill:#ebe7e4;fill-opacity:1;fill-rule:nonzero;stroke:none;stroke-width:1.25;stroke-linecap:butt;stroke-linejoin:miter;stroke-miterlimit:4;stroke-dasharray:none;stroke-dashoffset:0;stroke-opacity:1;marker:none;paint-order:normal;color-rendering:auto;image-rendering:auto;shape-rendering:auto;text-rendering:auto;enable-background:accumulate;font-variant-east_asian:normal"
     id="rect821"
     d="M 4,0.65625 A 0.67803385,0.67803385 0 0 0 3.4121094,0.99804688 C 1.3604667,4.5856736 0.66524504,9.6208456 0.65625,14.664062 a 0.67803385,0.67803385 0 0 0 0.6777344,0.679688 h 2 A 0.67803385,0.67803385 0 0 0 4.0019531,14.783203 C 4.4929936,12.00064 5.1919309,9.9392861 5.9433594,8.6289062 6.6947878,7.3185264 7.4328133,6.84375 8,6.84375 c 0.5671867,0 1.3052122,0.4747764 2.056641,1.7851562 0.751428,1.3103799 1.450365,3.3717338 1.941406,6.1542968 a 0.67803385,0.67803385 0 0 0 0.667969,0.560547 h 2 A 0.67803385,0.67803385 0 0 0 15.34375,14.662109 C 15.313268,9.2099178 14.567084,4.5136966 12.591797,1.0019531 A 0.67803385,0.67803385 0 0 0 12,0.65625 Z"
     transform="matrix(0.8,0,0,0.8,1.6000008,1.6)" />

</g>%n%n
<g transform="translate(138.000000, 8.000000) scale(2.000000 2.000000) "> 

<g id="surface1">
<path style=" stroke:none;fill-rule:nonzero;fill:rgb(24.705882%,24.705882%,24.705882%);fill-opacity:1;" d="M 3 1 L 9 1 C 10.414062 3.511719 10.976562 6.957031 11 11 L 9.5 11 C 8 2.5 4 2.5 2.5 11 L 1 11 C 1.007812 7.265625 1.539062 3.550781 3 1 Z M 3 1 "/>
</g>

</g>%n%n</svg>

<svg width="300" height="40" viewBox="0 0 300 40" fill="none" xmlns="http://www.w3.org/2000/svg" xmlns:xlink="http://www.w3.org/1999/xlink">

<g transform="translate(130.000000, 0.000000) scale(2.500000 2.500000) "> 

 <path transform="matrix(.8 0 0 .8 1.6 1.6)" d="m4 0.65625a0.67803 0.67803 0 0 0-0.58789 0.3418c-2.0516 3.5876-2.7469 8.6228-2.7559 13.666a0.67803 0.67803 0 0 0 0.67773 0.67969h2a0.67803 0.67803 0 0 0 0.66797-0.56055c0.49104-2.7826 1.19-4.8439 1.9414-6.1543 0.75143-1.3104 1.4895-1.7852 2.0566-1.7852s1.3052 0.47478 2.0566 1.7852c0.75143 1.3104 1.4504 3.3717 1.9414 6.1543a0.67803 0.67803 0 0 0 0.66797 0.56055h2a0.67803 0.67803 0 0 0 0.67773-0.68164c-0.030482-5.4522-0.77667-10.148-2.752-13.66a0.67803 0.67803 0 0 0-0.5918-0.3457z" color="#000000" color-rendering="auto" fill="#ebe7e4" image-rendering="auto" opacity=".812" shape-rendering="auto" solid-color="#000000" style="font-variant-east_asian:normal;isolation:auto;mix-blend-mode:normal;paint-order:normal"/>

</g>%n%n
<g transform="translate(138.000000, 8.000000) scale(0.750000 0.750000) "> 

<path fill-rule="nonzero" fill="rgb(24.705882%, 24.705882%, 24.705882%)" fill-opacity="1" d="M 8 2.667969 L 24 2.667969 C 27.765625 9.359375 29.273438 18.554688 29.332031 29.332031 L 25.332031 29.332031 C 21.332031 6.667969 10.667969 6.667969 6.667969 29.332031 L 2.667969 29.332031 C 2.6875 19.375 4.105469 9.472656 8 2.667969 Z M 8 2.667969 "/>

</g>%n%n</svg>
